assets/svg/icon_login_safeacc.svg

<svg width="24" height="24" viewBox="0 0 24 24" fill="none" xmlns="http://www.w3.org/2000/svg">
<path d="M4.80078 10.7333C4.80078 8.17526 4.80078 6.89622 5.10279 6.46593C5.40481 6.03563 6.60744 5.62397 9.01271 4.80063L9.47096 4.64377C10.7248 4.21459 11.3517 4 12.0008 4C12.6499 4 13.2768 4.21459 14.5306 4.64377L14.9889 4.80063C17.3941 5.62397 18.5968 6.03563 18.8988 6.46593C19.2008 6.89622 19.2008 8.17526 19.2008 10.7333C19.2008 11.1197 19.2008 11.5387 19.2008 11.9931C19.2008 16.5035 15.8096 18.6924 13.6819 19.6218C13.1048 19.8739 12.8162 20 12.0008 20C11.1854 20 10.8968 19.8739 10.3196 19.6218C8.19195 18.6924 4.80078 16.5035 4.80078 11.9931C4.80078 11.5387 4.80078 11.1197 4.80078 10.7333Z" stroke="#0166FF" stroke-width="1.5"/>
<path d="M8.5 12L10.8333 14.5L15.5 9.5" stroke="#0166FF" stroke-width="1.4" stroke-linecap="round" stroke-linejoin="round"/>
</svg>

<svg xmlns="http://www.w3.org/2000/svg" width="24" height="24" fill="none"><path stroke="#0166FF" stroke-width="1.5" d="M4.8 10.733c0-2.558 0-3.837.303-4.267.302-.43 1.504-.842 3.91-1.665l.458-.157c1.254-.43 1.88-.644 2.53-.644s1.276.215 2.53.644l.458.157c2.405.823 3.608 1.235 3.91 1.665s.302 1.71.302 4.267v1.26c0 4.51-3.391 6.7-5.52 7.629-.576.252-.865.378-1.68.378-.816 0-1.104-.126-1.681-.378-2.128-.93-5.52-3.119-5.52-7.629z"/><path stroke="#0166FF" stroke-linecap="round" stroke-linejoin="round" stroke-width="1.4" d="m8.5 12 2.333 2.5 4.667-5"/></svg>
